X: 42498
T: What I Want
R: jig
M: 6/8
K: Eminor
|:E3 DEF|GFG A2 A|Bde dBG|GAB A2 e|
dBG GAB|AFD DEF|G2 B AFD|1 DEF EDF:|2 DEF EGB|
|:dBG GAB|dgf edB|c2 B A2 G|F2 E DGB|
dBG GAB|AFD DEF|G2 B AFD|1 DEF EGB:|2 DEF EDF|

